X: 13358
T: Flax In Bloom, The
R: reel
M: 4/4
K: Dmajor
~f2af dfaf|~g2fg e~B3|f~d3 Adfd|ceae c/d/e ae|
~f2af dfaf|~g2fg e~B3|A~F3 ABdf|afeg f~d3:|

